logos/linux-mint.svg

<?xml version="1.0" encoding="UTF-8"?>
<svg width="256px" height="256px" viewBox="0 0 256 256" version="1.1" xmlns="http://www.w3.org/2000/svg" preserveAspectRatio="xMidYMid">
    <title>Linux Mint</title>
    <g>
        <circle fill="#69B53F" cx="128" cy="128" r="118"></circle>
        <path d="M128,0 C57.307552,0 0,57.307552 0,128 C0,198.692448 57.307552,256 128,256 C198.692448,256 256,198.692448 256,128 C256,57.307552 198.692448,0 128,0 Z M128,20 C187.646753,20 236,68.353247 236,128 C236,187.646753 187.646753,236 128,236 C68.353247,236 20,187.646753 20,128 C20,68.353247 68.353247,20 128,20 Z" fill="#FFFFFF"></path>
        <path d="M78.500005,62.500005 L78.500005,153.000005 C78.500005,163.772176 86.9297462,172.316513 97.653296,172.497089 L98.000005,172.500005 L158.000005,172.500005 C168.772178,172.500005 177.316513,164.070267 177.497089,153.346714 L177.500005,153.000005 L177.500005,103.000005 C177.500005,97.6348656 173.365146,93.500005 168.000005,93.500005 C162.727373,93.500005 158.642952,97.4935168 158.503678,102.72361 L158.500005,103.000005 L158.500005,153.500005 L137.500005,153.500005 L137.500005,103.000005 C137.500005,97.6348656 133.365146,93.500005 128.000005,93.500005 C122.727373,93.500005 118.642952,97.4935168 118.503678,102.72361 L118.500005,103.000005 L118.500005,153.500005 L97.500005,153.500005 L97.500005,103.000005 C97.500005,86.2737843 111.273786,72.500005 128.000005,72.500005 C135.037601,72.500005 141.733897,75.0149912 147.178733,79.4966367 L147.574889,79.8280638 L148.000005,80.196 L148.434284,79.8202766 C153.684368,75.3596146 160.144724,72.7560906 166.971763,72.517926 L167.497629,72.5042796 L168.000005,72.500005 C184.558968,72.500005 198.224234,85.9996828 198.495884,102.499115 L198.500005,103.000005 L198.500005,153.000005 C198.500005,175.026582 180.612266,193.134587 158.666263,193.494544 L158.000005,193.500005 L98.000005,193.500005 C75.9734316,193.500005 57.8654235,175.612264 57.505466,153.666263 L57.500005,153.000005 L57.500005,62.500005 L78.500005,62.500005 Z" fill="#F8F8F8"></path>
    </g>
</svg>

<svg preserveAspectRatio="xMidYMid" viewBox="0 0 256 256" xmlns="http://www.w3.org/2000/svg">
  <circle cx="128" cy="128" r="118" fill="#69B53F"/>
  <path fill="#FFF" d="M128 0C57.308 0 0 57.308 0 128c0 70.692 57.308 128 128 128 70.692 0 128-57.308 128-128C256 57.308 198.692 0 128 0Zm0 20c59.647 0 108 48.353 108 108s-48.353 108-108 108S20 187.647 20 128 68.353 20 128 20Z"/>
  <path fill="#F8F8F8" d="M78.5 62.5V153c0 10.772 8.43 19.317 19.153 19.497l.347.003h60c10.772 0 19.317-8.43 19.497-19.153l.003-.347v-50c0-5.365-4.135-9.5-9.5-9.5-5.273 0-9.357 3.994-9.496 9.224l-.004.276v50.5h-21V103c0-5.365-4.135-9.5-9.5-9.5-5.273 0-9.357 3.994-9.496 9.224l-.004.276v50.5h-21V103c0-16.726 13.774-30.5 30.5-30.5 7.038 0 13.734 2.515 19.179 6.997l.396.331.425.368.434-.376c5.25-4.46 11.71-7.064 18.538-7.302l.526-.014.502-.004c16.559 0 30.224 13.5 30.496 30l.004.5v50c0 22.027-17.888 40.135-39.834 40.495l-.666.005H98c-22.027 0-40.135-17.888-40.495-39.834L57.5 153V62.5h21Z"/>
</svg>
